X:1
T:[ID 5-21b]
T:[ID 5-21b]
T:Bezeichnung standardisiert: Aldenburger; Aldenburger
T:Urheber unbekannt Datum in der hier transkribierten schriftlichen Quelle: 1792
C:Urheber unbekannt
C:Datum in der hier transkribierten schriftlichen Quelle: 1792
L:1/8
M:2/4
K:G
V:1 treble 
V:1
 GG G/A/B/c/ | dd d2 | efga | fe/f/ de/f/ | gefg | aa/b/ ag | fe/d/ e/g/e/c/ | d2 D2 :: Bd d2 | %9
 Ac c2 | G/A/B/c/ BA/G/ | AA A2 | Bd d2 | Ac c2 | BA/G/ A/c/A/F/ | G2 G2 :| %16

